!!!OTL: Studentenzaertlichkeit.
!!!OTL-incipit:VOLL ZAERTLICHKEIT WILL ICH DIR
!!!ARE: Europa, Mitteleuropa, Deutschland
!!!SCT: F0514
!!!TXL: @@DE
!!!YEM: Copyright 1995, estate of Helmut Schaffrath.
**kern	**text
*ICvox	*
*clefG2	*
*M4/4	*
*met(c)	*
*k[]	*
*C:	*
!LO:TX:a:t=Munter und ʒärtlich.	!
!LO:TX:a:t=P:only the highest voice encoded:problem	!
{4g	1._Voll
=1	=1
8.cc	Ʒärt-
16dd	-lich-
8.ee	-keit
16dd	will
8.cc	ich
16b	der
8.cc	Dir-
16a	-ne
=2	=2
2g	ſa-
8e}	-gen,
{8g	daß
8g	ſie
8g	mein
=3	=3
4a	gan-
4dd	-ʒes
4cc	Herʒ
4b	ge-
=4	=4
4cc	-1._rührt;
4r	.
4r}	.
{4g	nie
=5	=5
8.cc	kann
16dd	ich
8.ee	fer-
16dd	-ner
8.cc	ih-
16b	-ren
8.cc	Blick
16a	er-
=6	=6
2g	-tra-
8e}	-gen,
{8g	da
8g	er
8g	ſo-
=7	=7
4a	-gleich
4dd	ka-
4cc	-pi-
4b	-tu-
=8	=8
2cc	-lirt.
4r}	.
!LO:TX:a:t=Das Erſte Mal Einer, das ʒweite Mal Alle.	!
{4cc/	Ein
=9	=9
8.b/	Burſch,
16cc/	wie
4.dd/	ich,
8g	nimmt
8g	manche
8g	.
=10	=10
8.cc/	Freiheit
16dd/	.
8.ee/	ſich
16dd/	heraus,
4cc/}	.
{4cc/	ein
=11	=11
8.b/	Mann,
16cc/	wie
4.dd/	ich,
8g	geht
8g	ſtet's
8g	will-
=12	=12
8.cc/	-kommen
16dd/	.
8.ee/	ein
16dd/	und
4cc}/	aus.
{4g	Als
=13	=13
8.cc/	Burſche
16dd/	.
8.ee/	führ'
16dd/	ich,
8.cc/	oh-
16b/	-ne
8cc/	viel
8a	ʒu
=14	=14
(>4.g	fra-
8f)	.
8e}	-gen,
{8g	die
8g	ſchön-
8g	-ſte
=15	=15
4a	Dir-
4dd/	-ne
4cc/	mir
4b/	nach
=16	=16
4cc/	Haus.
4r	.
4r}	.
{4cc/	Ein
=17	=17
8.b/	Burſch,
16cc/	wie
4.dd/	ich,
8g	nimmt
8g	manche
8g	.
=18	=18
8.cc/	Freiheit
16dd/	.
8.ee/	ſich
16dd/	heraus,
4cc/}	.
{4cc/	ein
=19	=19
8.b/	Mann,
16cc/	wie
4.dd/	ich,
8g	geht
8g	ſtet's
8g	will-
=20	=20
8.cc/	-kommen
16dd/	.
8.ee/	ein
16dd/	und
4cc/}	aus.
{4g	Als
=21	=21
8.cc/	Burſche
16dd/	.
8.ee/	führ'
16dd/	ich,
8.cc/	oh-
16b/	-ne
8cc/	viel
8a	ʒu
=22	=22
(>4.g	fra-
8f)	.
8e}	-gen,
{8g	die
8g	ſchön-
8g	-ſte
=23	=23
4a	Dir-
4dd	-ne
4cc	mir
4b	nach
=24	=24
4cc	Haus.
4r	.
4r}	.
==	==
!!!AGN: Studenten - Lied, Liebe
!!!ONB: ESAC (Essen Associative Code) Database: FINK
!!!AMT: simple quadruple
!!!AIN: vox
!!!EED: Helmut Schaffrath
!!!EEV: 1.0
!!!RDF**kern: > = above
!!!GTL: Studentenlieder
!!!source: Musikalischer Hausschatz der Deutschen. Eine Sammlung von über 1000 Liedern und Gesängen mit Singstimmen und Klavierbegleitung. Leipzig, Litterarisches Verlags-Haus.
!!!page: 327
!!!URL-scan: https://www.digitale-sammlungen.de/en/view/bsb11144622?page=304
!!!ENC: Anna Maria Matuszewska
!!!EEV: 2024/01/08
*-	*-
